packages/components/icon/src/assets/icons/basket.svg

<svg width="24" height="24" viewBox="0 0 24 24" fill="none" xmlns="http://www.w3.org/2000/svg">
<path fill-rule="evenodd" clip-rule="evenodd" d="M2.7376 10.7035H2V8.75103H6.98967L9.72314 4L11.4153 4.95455L9.24587 8.75103H15.0165L12.8471 4.95455L14.5393 4L17.251 8.75103H22.2624V10.7035H21.5031L19.312 19.5114C19.2541 19.7283 19.1384 19.9055 18.9649 20.0429C18.7913 20.1803 18.5888 20.249 18.3574 20.249H5.90496C5.67355 20.249 5.47108 20.1803 5.29752 20.0429C5.12397 19.9055 5.00826 19.7283 4.95041 19.5114L2.7376 10.7035ZM4.75517 10.7035L6.66426 18.2965H17.5981L19.5072 10.7035H4.75517ZM9.98347 12.2655V16.7562H8.03099V12.2655H9.98347ZM13.1074 12.2655V16.7562H11.155V12.2655H13.1074ZM16.2097 12.2655V16.7562H14.2789V12.2655H16.2097Z" fill="currentColor"/>
</svg>

<svg viewBox="0 0 24 24" fill="none" xmlns="http://www.w3.org/2000/svg"><path fill-rule="evenodd" clip-rule="evenodd" d="M2.738 10.704H2V8.75h4.99L9.723 4l1.692.955-2.17 3.796h5.772l-2.17-3.796L14.54 4l2.712 4.751h5.011v1.953h-.759l-2.191 8.807a.984.984 0 0 1-.347.532.95.95 0 0 1-.608.206H5.905a.95.95 0 0 1-.607-.206.983.983 0 0 1-.348-.532l-2.212-8.807Zm2.017 0 1.91 7.593h10.933l1.91-7.594H4.754Zm5.228 1.561v4.491H8.031v-4.49h1.952Zm3.124 0v4.491h-1.952v-4.49h1.952Zm3.103 0v4.491h-1.931v-4.49h1.93Z" fill="currentColor"/></svg>
